X:6088
T:Skye Dance
O:england
M:2/2
L:1/8
B:SRSNH 1.4
K:C
|:e|AAeA c2BA|B2BB d2f2|AAeA c2BA|B2BB dAA:|
|:e|aeed c2BA|AAeA c2e2|aeed c2BA|B2BB dAA:|
